spyder/images/light/run_settings.svg

<?xml version="1.0" encoding="UTF-8" standalone="no"?>
<svg
   xmlns:dc="http://purl.org/dc/elements/1.1/"
   xmlns:cc="http://creativecommons.org/ns#"
   xmlns:rdf="http://www.w3.org/1999/02/22-rdf-syntax-ns#"
   xmlns:svg="http://www.w3.org/2000/svg"
   xmlns="http://www.w3.org/2000/svg"
   xmlns:sodipodi="http://sodipodi.sourceforge.net/DTD/sodipodi-0.dtd"
   xmlns:inkscape="http://www.inkscape.org/namespaces/inkscape"
   width="24"
   height="24"
   viewBox="0 0 24 24"
   fill="none"
   version="1.1"
   id="svg156"
   sodipodi:docname="run settings 0-6.svg"
   inkscape:version="1.0.2 (e86c8708, 2021-01-15)">
  <metadata
     id="metadata162">
    <rdf:RDF>
      <cc:Work
         rdf:about="">
        <dc:format>image/svg+xml</dc:format>
        <dc:type
           rdf:resource="http://purl.org/dc/dcmitype/StillImage" />
        <dc:title></dc:title>
      </cc:Work>
    </rdf:RDF>
  </metadata>
  <defs
     id="defs160" />
  <sodipodi:namedview
     pagecolor="#ffffff"
     bordercolor="#666666"
     borderopacity="1"
     objecttolerance="10"
     gridtolerance="10"
     guidetolerance="10"
     inkscape:pageopacity="0"
     inkscape:pageshadow="2"
     inkscape:window-width="689"
     inkscape:window-height="480"
     id="namedview158"
     showgrid="false"
     inkscape:zoom="5.0065913"
     inkscape:cx="12"
     inkscape:cy="12"
     inkscape:window-x="30"
     inkscape:window-y="23"
     inkscape:window-maximized="0"
     inkscape:current-layer="svg156"
     inkscape:document-rotation="0" />
  <path
     d="M12 15V22L18 18.5L12 15Z"
     fill="#007A5E"
     id="path152" />
  <path
     fill-rule="evenodd"
     clip-rule="evenodd"
     d="M10.6701 9.23295L3.23573 16.7124C2.90894 16.9589 2.90894 17.5343 3.31742 17.863L5.19643 19.7534C5.52322 20.0822 6.01339 20.0822 6.34018 19.7534L10 16.0714V13.259C10 12.4872 10.8372 12.0063 11.5039 12.3952L12.8649 13.1891L13.7745 12.274C15.6535 13.0137 17.8593 12.6028 19.4115 11.0412C21.0454 9.39734 21.4539 6.9316 20.4736 4.95901L16.879 8.49323L14.4281 6.0275L17.941 2.49328C15.9803 1.58917 13.5294 1.91794 11.8955 3.56176C10.3433 5.1234 9.9348 7.34256 10.6701 9.23295Z"
     fill="#37414F"
     id="path154" />
</svg>

<svg xmlns="http://www.w3.org/2000/svg" width="24" height="24" fill="none"><path fill="#007A5E" d="M12 15v7l6-3.5-6-3.5Z"/><path fill="#37414F" fill-rule="evenodd" d="m10.67 9.233-7.434 7.48c-.327.246-.327.821.081 1.15l1.88 1.89a.786.786 0 0 0 1.143 0L10 16.071V13.26a1 1 0 0 1 1.504-.864l1.36.794.91-.915c1.88.74 4.085.329 5.638-1.233 1.633-1.644 2.042-4.11 1.062-6.082l-3.595 3.534-2.45-2.466 3.512-3.534c-1.96-.904-4.412-.575-6.045 1.069-1.553 1.561-1.961 3.78-1.226 5.671Z" clip-rule="evenodd"/></svg>
